app/assets/images/logo-dreamstones.svg

<svg xmlns="http://www.w3.org/2000/svg" width="143" height="254" viewBox="0 0 143 254"><path fill="#1A1918" fill-rule="evenodd" d="M122.249 220.1s-2.155 14.842-20.407 14.842c-17.044 0-20.87-15.768-20.87-15.768s-.112-31.011.001-30.122c.727 1.944 4.472 7.859 20.637 7.859 24.581 0 20.639 23.189 20.639 23.189zm-81.928-26.811c-24.582 0-20.64-23.189-20.64-23.189s2.157-15.77 20.407-15.77c17.046 0 20.954 16.696 20.954 16.696s-.045 30.696 0 31.049c.271.722-4.556-8.786-20.721-8.786zm94.03-.643c-13.839-17.175-26.943-12.537-37.674-15.259-20.672-5.239-7.709-31.74 11.446-23.365 6.36 2.781 7.402 11.446 7.402 11.446h20.255s.077-32.166-34.506-32.108c-11.837.022-20.301 5.054-20.301 5.054V0H61.042v138.272s-8.477-4.84-18.151-4.84C25.2 133.432 0 144.798 0 173.964c0 30.151 22.801 40.31 40.635 41.994 17.804 1.679 20.407 9.033 20.407 9.033s6.827 28.426 40.546 28.515c34.265.087 52.509-36.347 32.763-60.86z"/></svg>

<svg xmlns="http://www.w3.org/2000/svg" width="143" height="254" viewBox="0 0 143 254">
  <path fill="#1A1918" fill-rule="evenodd" d="M122.249,220.1 C122.249,220.1 120.094,234.942 101.842,234.942 C84.798,234.942 80.972,219.174 80.972,219.174 C80.972,219.174 80.86,188.163 80.973,189.052 C81.7,190.996 85.445,196.911 101.61,196.911 C126.191,196.911 122.249,220.1 122.249,220.1 Z M40.321,193.289 C15.739,193.289 19.681,170.1 19.681,170.1 C19.681,170.1 21.838,154.33 40.088,154.33 C57.134,154.33 61.042,171.026 61.042,171.026 C61.042,171.026 60.997,201.722 61.042,202.075 C61.313,202.797 56.486,193.289 40.321,193.289 Z M134.351,192.646 C120.512,175.471 107.408,180.109 96.677,177.387 C76.005,172.148 88.968,145.647 108.123,154.022 C114.483,156.803 115.525,165.468 115.525,165.468 L135.78,165.468 C135.78,165.468 135.857,133.302 101.274,133.36 C89.437,133.382 80.973,138.414 80.973,138.414 L80.973,0 L61.042,0 L61.042,138.272 C61.042,138.272 52.565,133.432 42.891,133.432 C25.2,133.432 0,144.798 0,173.964 C0,204.115 22.801,214.274 40.635,215.958 C58.439,217.637 61.042,224.991 61.042,224.991 C61.042,224.991 67.869,253.417 101.588,253.506 C135.853,253.593 154.097,217.159 134.351,192.646 L134.351,192.646 Z"/>
</svg>
